packages/icons/src/emoji/svg/footprint.svg

<svg width="120" height="120" viewBox="0 0 120 120" fill="none" xmlns="http://www.w3.org/2000/svg">
<path d="M55.9499 30.8343C62.1468 35.0062 67.6405 28.0593 66.7687 21.2906C66.4593 18.9562 65.578 16.8187 64.0968 15.1875C61.678 12.5062 56.6343 12.225 54.7968 15.0562C51.8155 19.6125 50.5968 27.225 55.9499 30.8343ZM38.9061 25.275C45.5155 28.6875 50.3811 21.075 48.8718 14.3906C48.3561 12.1031 47.2687 10.0593 45.6374 8.60621C42.9655 6.20621 37.903 6.53433 36.3093 9.59058C33.7311 14.5031 33.2249 22.3031 38.9061 25.275ZM9.8249 24.2625C6.88115 22.4062 2.22177 24.6187 1.0499 28.0312C0.337398 30.1031 0.384273 32.4093 1.06865 34.6687C3.10302 41.2218 11.2311 45.4125 15.3655 39.1687C18.928 33.825 14.5686 27.2812 9.8249 24.2625ZM28.678 27.5906C32.578 22.7437 28.9218 15.7687 24.5905 12.2062C21.8999 10.0125 17.203 11.6062 15.7874 14.8312C14.9249 16.7718 14.7936 19.0687 15.2624 21.375C16.6593 28.0687 24.1686 33.225 28.678 27.5906ZM56.8218 43.5656C54.7405 36.8625 47.203 33.9562 41.9343 33.2906C34.078 32.3062 25.5374 36.4875 21.6655 44.7375C20.1093 48.0562 17.9061 53.9062 19.9968 57.6468C22.8843 62.775 30.1405 59.4937 33.628 57.6375C37.7624 55.3968 41.053 53.4187 45.8061 54.1781L46.3124 54.2625C52.3218 55.0406 59.7936 53.0906 56.8218 43.5656ZM63.478 81.6187C60.3655 80.2968 56.353 83.3531 55.8374 86.925C55.528 89.0906 55.9874 91.3687 57.0374 93.4687C60.0843 99.5718 68.5218 102.272 71.3343 95.3437C73.753 89.3625 68.4843 83.7281 63.478 81.6187ZM82.3593 81.2156C85.4155 75.5812 80.6436 69.3937 75.7593 66.75C72.7405 65.1093 68.353 67.6593 67.4624 71.1468C66.928 73.2562 67.1718 75.5625 68.0249 77.7468C70.4999 84.1312 78.7874 87.7406 82.3593 81.2156ZM118.997 67.8656C118.294 65.6062 117.056 63.675 115.312 62.3437C112.434 60.1687 107.334 60.9375 105.928 64.125C103.678 69.2718 103.706 77.1375 109.659 79.5843C116.569 82.4531 120.975 74.4281 118.997 67.8656ZM92.1374 77.4187C99.0187 79.575 102.375 71.1 99.7874 64.7625C98.8968 62.5875 97.4999 60.75 95.6999 59.6156C92.728 57.7406 87.9374 59.0343 86.9343 62.3625C85.3405 67.7437 86.1936 75.5718 92.1374 77.4187ZM107.522 87.7218C99.7124 83.0437 90.2812 84.3562 84.3187 89.55C80.3155 93.0468 75.6936 99.6562 77.7093 106.387C80.5686 115.95 87.853 113.391 92.3905 109.387L92.7749 109.031C96.2905 105.759 100.125 105.553 104.803 105.112C108.731 104.709 116.597 103.369 116.109 97.5093C115.772 93.225 110.662 89.6062 107.522 87.7218Z" fill="#78A3AD"/>
</svg>

<svg xmlns="http://www.w3.org/2000/svg" fill="none" aria-hidden="true" data-slot="icon" viewBox="0 0 120 120"><path fill="#78A3AD" d="M55.95 30.834c6.197 4.172 11.69-2.775 10.819-9.543-.31-2.335-1.191-4.472-2.672-6.103-2.419-2.682-7.463-2.963-9.3-.132-2.981 4.557-4.2 12.169 1.153 15.778m-17.044-5.559c6.61 3.413 11.475-4.2 9.966-10.884-.516-2.288-1.603-4.332-3.235-5.785-2.672-2.4-7.734-2.072-9.328.985-2.578 4.912-3.084 12.712 2.597 15.684M9.825 24.263c-2.944-1.857-7.603.356-8.775 3.768-.713 2.072-.666 4.378.019 6.638 2.034 6.553 10.162 10.744 14.297 4.5 3.562-5.344-.797-11.888-5.541-14.906m18.853 3.328c3.9-4.847.244-11.822-4.088-15.385-2.69-2.193-7.387-.6-8.803 2.625-.862 1.94-.993 4.238-.525 6.544 1.397 6.694 8.907 11.85 13.416 6.216m28.144 15.975c-2.082-6.704-9.619-9.61-14.888-10.275-7.856-.985-16.397 3.197-20.268 11.447-1.557 3.318-3.76 9.168-1.67 12.909 2.888 5.128 10.145 1.847 13.632-.01 4.134-2.24 7.425-4.218 12.178-3.459l.506.085c6.01.778 13.482-1.172 10.51-10.697m6.656 38.053c-3.113-1.322-7.125 1.734-7.64 5.306-.31 2.166.15 4.444 1.2 6.544 3.046 6.103 11.484 8.803 14.296 1.875 2.419-5.981-2.85-11.616-7.856-13.725m18.881-.403c3.057-5.635-1.715-11.822-6.6-14.466-3.019-1.64-7.406.91-8.297 4.397-.534 2.11-.29 4.415.563 6.6 2.475 6.384 10.762 9.994 14.334 3.469m36.638-13.35c-.703-2.26-1.941-4.191-3.685-5.522-2.878-2.175-7.978-1.407-9.384 1.781-2.25 5.147-2.222 13.013 3.731 15.46 6.91 2.868 11.316-5.157 9.338-11.72m-26.86 9.553c6.882 2.156 10.238-6.319 7.65-12.656-.89-2.176-2.287-4.013-4.087-5.147-2.972-1.875-7.763-.582-8.766 2.746-1.593 5.382-.74 13.21 5.203 15.057m15.385 10.303c-7.81-4.678-17.24-3.366-23.203 1.828-4.004 3.497-8.625 10.106-6.61 16.837 2.86 9.563 10.144 7.004 14.682 3l.384-.356c3.515-3.272 7.35-3.478 12.028-3.919 3.928-.403 11.794-1.743 11.306-7.603-.337-4.284-5.447-7.903-8.587-9.787"/></svg>
